material/.icons/material/alpha-c-circle.svg

<svg xmlns="http://www.w3.org/2000/svg" viewBox="0 0 24 24"><path d="M12 2a10 10 0 0110 10 10 10 0 01-10 10A10 10 0 012 12 10 10 0 0112 2m-1 5a2 2 0 00-2 2v6a2 2 0 002 2h2a2 2 0 002-2v-1h-2v1h-2V9h2v1h2V9a2 2 0 00-2-2h-2z"/></svg>

<?xml version="1.0" encoding="UTF-8"?><!DOCTYPE svg PUBLIC "-//W3C//DTD SVG 1.1//EN" "http://www.w3.org/Graphics/SVG/1.1/DTD/svg11.dtd"><svg xmlns="http://www.w3.org/2000/svg" xmlns:xlink="http://www.w3.org/1999/xlink" version="1.1" id="mdi-alpha-c-circle" width="24" height="24" viewBox="0 0 24 24"><path d="M12,2A10,10 0 0,1 22,12A10,10 0 0,1 12,22A10,10 0 0,1 2,12A10,10 0 0,1 12,2M11,7A2,2 0 0,0 9,9V15A2,2 0 0,0 11,17H13A2,2 0 0,0 15,15V14H13V15H11V9H13V10H15V9A2,2 0 0,0 13,7H11Z" /></svg>
